assets/img/braze_icons/arrow-up-right.svg

<svg fill="none" height="24" viewBox="0 0 24 24" width="24" xmlns="http://www.w3.org/2000/svg"><path d="m7 6c-.55228 0-1 .44772-1 1s.44772 1 1 1h7.5858l-8.29291 8.2929c-.39052.3905-.39052 1.0237 0 1.4142.39053.3905 1.02369.3905 1.41422 0l8.29289-8.29289v7.58579c0 .5523.4477 1 1 1s1-.4477 1-1v-10c0-.55228-.4477-1-1-1z" fill="#801ed7"/></svg>

<svg width="24" height="24" viewBox="0 0 24 24" fill="none" xmlns="http://www.w3.org/2000/svg">
<path d="M7 6C6.44772 6 6 6.44772 6 7C6 7.55228 6.44772 8 7 8H14.5858L6.29289 16.2929C5.90237 16.6834 5.90237 17.3166 6.29289 17.7071C6.68342 18.0976 7.31658 18.0976 7.70711 17.7071L16 9.41421V17C16 17.5523 16.4477 18 17 18C17.5523 18 18 17.5523 18 17V7C18 6.44772 17.5523 6 17 6H7Z" fill="#801ED7"/>
</svg>
